X:1
T:Title
%%score { 1 | ( 2 3 ) }
L:1/8
Q:1/4=100
M:2/2
K:G
V:1 treble nm="Grand Piano"
V:2 bass 
V:3 bass 
V:1
 [DB]3 [^C_B] [D=B]2 [DG]2 | [EG]4 [CE]4 | [B,D]2 [B,D]2 GA B2 | A4 c4 | %4
w: W.~A.~Ogden * * *||||
 [DB]3 [^C_B] [D=B]2 [DG]2 | [EG]4 E4 | D2 G2 G2 A2 | [B,G]8 | B3 c d4 | [Ec]3 [CE] [EG]4 | %10
w: ||||||
 [DB]2 [DB]2 [DA]2 [DG]2 | [DA]8 | [DB]3 [^C_B] [D=B]2 [DG]2 | [EG]4 E4 | D2 G2 G2 A2 | %15
w: |||||
[M:8/4] [B,G]8 z8 |] %16
w: |
V:2
 [G,,G,]3 [G,,G,] [G,,G,]2 [B,,G,]2 | [C,G,]4 [C,G,]4 | [G,,G,]2 [G,,G,]2 [E,G,^C]2 [E,G,C]2 | %3
 [D,D]4- [D,A,D]4 | [G,,G,]3 [G,,G,] [G,,G,]2 [B,,G,]2 | [C,G,]4 [C,G,C]4 | %6
 [D,G,B,]2 [D,G,B,]2 [D,G,B,]2 [D,F,C]2 | [G,,G,]8 | [G,D]3 [G,A,E] [G,B,D]4 | %9
 [C,G,]3 [C,G,] [C,G,]4 | [G,,G,]2 [G,,G,]2 [A,,F,]2 [B,,G,]2 | [D,F,]8 | %12
 [G,,G,]3 [G,,G,] [G,,G,]2 [B,,G,]2 | [C,G,]4 [C,G,C]4 | [D,G,B,]2 [D,G,B,]2 [D,G,B,]2 [D,F,C]2 | %15
[M:8/4] [G,,G,]8 z8 |] %16
V:3
 x8 | x8 | x8 | F,4 z4 | x8 | x8 | x8 | x8 | x8 | x8 | x8 | x8 | x8 | x8 | x8 |[M:8/4] x16 |] %16

